X: 4
I: linebreak $
T: Bella Gioiosa
P: AA BBC x 7 (or sometimes AA BBC AA x 6)
K: G major
M: 3/4
L: 1/8
P: A
d2 |: "G"d2c2d2 | G2A2B2 | "C"c2d2e2 | c2d2c2 | "G"B2c2B2 | G2A2G2 | 
"D"A6 | A4d2 | "G"d2c2A2 | G2A2B2 | "C"c2d2e2 | c2d2c2 | 
"G"B2A2G2 | "D"F2G2A2 | "G"G6 | G4 :: 
P: B
dc | "G"B2A2G2 | "D"F2G2F2 | 
"G"G4G2 | G4 :| 
P: C
dc | "G"B2A2G2 | "D"F2G2F2 | "G"G4G2 | G4 |] 

